docs/styles/img/icons/socialSubscribe/twitter.svg

<svg width="27" height="27" viewBox="0 0 27 27" fill="none" xmlns="http://www.w3.org/2000/svg">
<g clip-path="url(#clip0)">
<path d="M27 5.12831C25.9959 5.56875 24.9261 5.86069 23.8106 6.00244C24.9581 5.31731 25.8339 4.24069 26.2457 2.943C25.1758 3.58087 23.9946 4.03144 22.7357 4.28288C21.7198 3.20119 20.2719 2.53125 18.6924 2.53125C15.6279 2.53125 13.1608 5.01863 13.1608 8.06794C13.1608 8.50669 13.1979 8.92856 13.2891 9.33019C8.68725 9.10575 4.61531 6.90019 1.87987 3.54038C1.40231 4.36894 1.12219 5.31731 1.12219 6.33825C1.12219 8.25525 2.10938 9.95456 3.58087 10.9384C2.69156 10.9215 1.81912 10.6633 1.08 10.2566C1.08 10.2735 1.08 10.2954 1.08 10.3174C1.08 13.0072 2.99869 15.2415 5.51475 15.7562C5.06419 15.8794 4.57312 15.9384 4.0635 15.9384C3.70913 15.9384 3.35137 15.9182 3.01556 15.8439C3.73275 18.036 5.76788 19.6476 8.18775 19.6999C6.3045 21.1731 3.91331 22.0607 1.32469 22.0607C0.87075 22.0607 0.435375 22.0404 0 21.9847C2.45194 23.5659 5.35781 24.4688 8.4915 24.4688C18.6772 24.4688 24.246 16.0312 24.246 8.71762C24.246 8.47294 24.2376 8.23669 24.2257 8.00213C25.3243 7.2225 26.2474 6.24881 27 5.12831Z" fill="#656565"/>
</g>
<defs>
<clipPath id="clip0">
<rect width="27" height="27" fill="white"/>
</clipPath>
</defs>
</svg>

<svg width="27" height="27" fill="none" xmlns="http://www.w3.org/2000/svg"><g clip-path="url(#clip0)"><path d="M27 5.128a11.54 11.54 0 01-3.19.874 5.504 5.504 0 002.436-3.059 11.062 11.062 0 01-3.51 1.34 5.534 5.534 0 00-9.575 3.785c0 .439.037.86.128 1.262C8.687 9.106 4.615 6.9 1.88 3.54a5.573 5.573 0 00-.757 2.798 5.54 5.54 0 002.459 4.6 5.467 5.467 0 01-2.501-.681v.06a5.56 5.56 0 004.435 5.44c-.45.122-.942.181-1.451.181-.355 0-.713-.02-1.048-.094.717 2.192 2.752 3.804 5.172 3.856a11.122 11.122 0 01-6.863 2.36c-.454 0-.89-.02-1.325-.075a15.583 15.583 0 008.492 2.484c10.185 0 15.754-8.438 15.754-15.751 0-.245-.008-.481-.02-.716A11.042 11.042 0 0027 5.128z" fill="#656565"/></g><defs><clipPath id="clip0"><path fill="#fff" d="M0 0h27v27H0z"/></clipPath></defs></svg>
